X: 10181
T: Dinny O'Brien's
R: reel
M: 4/4
K: Dmixolydian
"D" fddd dcAB|"C" c2 Bd cAGE|"D" D2 D2 FGAB|"C" c2 Bd ca g2|
"D" fdd/d/d dcAB|"C" c2 Bd cAGE|"D" D2 D2 FGAB|"C" cAGE "D" D2:|
|:"D" fdd/d/d defg|add/d/d bdad|"C" c2 B2 cdef|gcc/c/c acgc|
"D" abga fgef|"C" d2 AB cAGE|"D" D2 D2 FGAB|"C" cAGE "D" D2:|

